X:445
T:The Best Place Is In The Kitchen
C:Liz Merton and Tim Barrie Feb 17th 2001
L:1/8
M:4/4
O:New Zealand
P:2
R:Reel
%%Copyright:Liz Merton and Tim Barrie
%%TUNEURL: http://www.leeds.ac.uk/music/Info/RRTuneBk/gettune/00000c8a.html
%%ID:00000c8a
K:G
|Bc|:\
dcBc BAGA | G2E2 D2Bc | dcBc B2A2 | G2G4Bc |
dcBc BAGA | G2E2 D3D  | DEGA B2A2 |1 G6Bc :|2 G6D2 |
|: E2E3DED | GGGG3D2 | E2E3DED | F4F2D2 |
E2E3DED | G2G2G2Bc | dcBcB2A2 |1 G6D2 :|2 G6|]
